mimetypes/scalable/application-x-yaml.svg

<svg width="256" height="256" viewBox="0 0 256 256" fill="none" xmlns="http://www.w3.org/2000/svg">
<g opacity="0.4" filter="url(#filter0_f)">
<path d="M55.0839 15.5636H155.608L216.009 75.7129L216.011 224.609C216.011 233.52 208.749 240.737 199.838 240.737H55.0838C46.1734 240.737 39 233.564 39 224.654V31.6474C39 22.737 46.1734 15.5636 55.0838 15.5636H55.0839Z" fill="black"/>
</g>
<path d="M55.0839 15H155.608L216.009 75.1493L216.011 224.045C216.011 232.956 208.749 240.174 199.838 240.174H55.0838C46.1734 240.174 39 233 39 224.09V31.0838C39 22.1734 46.1734 15 55.0838 15H55.0839Z" fill="#ebdbb2"/>
<path opacity="0.2" d="M199.838 240.174C208.749 240.174 216.011 232.956 216.011 224.046L216.01 186.5H39V224.09C39 233 46.1734 240.174 55.0838 240.174H199.838Z" fill="url(#paint0_linear)"/>
<path fill-rule="evenodd" clip-rule="evenodd" d="M155.608 20.3191H55.0839C49.1112 20.3191 44.3191 25.1111 44.3191 31.0838V224.09C44.3191 230.063 49.1111 234.855 55.0838 234.855H199.838C205.83 234.855 210.692 229.999 210.692 224.046V75.1493L155.608 20.3191ZM155.608 15H55.0839C46.1735 15 39 22.1734 39 31.0838V224.09C39 233 46.1734 240.174 55.0838 240.174H199.838C208.749 240.174 216.011 232.956 216.011 224.045L216.009 75.1493L155.608 15Z" fill="url(#paint1_linear)"/>
<path d="M85.6531 226H90.4131V215.04L100.533 198H95.0931L88.0531 210.12L81.0131 198H75.5731L85.6531 215.04V226ZM119.735 226H124.775L114.375 198H109.615L99.1753 226H104.255L106.455 219.88H117.535L119.735 226ZM116.015 215.56H107.975L111.095 207.16C111.375 206.36 111.775 205.16 112.015 204.32C112.215 205.16 112.615 206.36 112.935 207.16L116.015 215.56ZM154.544 226V198H149.864L142.624 214.44C142.344 215.12 142.064 215.88 141.864 216.52C141.664 215.88 141.384 215.12 141.104 214.44L133.904 198H129.064V226H133.864V211.12C133.864 210.12 133.784 208.52 133.704 207.76C134.064 208.84 134.584 210.16 135.024 211.12L141.824 226.48L148.624 211.2C149.024 210.2 149.544 208.84 149.904 207.76C149.824 208.52 149.744 210.12 149.744 211.12V226H154.544ZM161.33 226H179.73V221.4H166.13V198H161.33V226Z" fill="url(#paint2_linear)"/>
<path d="M154.827 48H182L101.173 168H74L114.413 108L74 48H101.173L128 87.8283L154.827 48Z" fill="url(#paint3_linear)"/>
<path opacity="0.25" d="M155.608 17V61.2306C155.608 70.141 162.867 77.1605 171.777 77.1605L216.009 77.1493V75.1493L155.608 17Z" fill="black"/>
<path d="M155.608 15V59.2306C155.608 68.141 162.867 75.1605 171.777 75.1605L216.009 75.1493L155.608 15Z" fill="url(#paint4_linear)"/>
<defs>
<filter id="filter0_f" x="23.8778" y="0.441412" width="207.255" height="255.418" filterUnits="userSpaceOnUse" color-interpolation-filters="sRGB">
<feFlood flood-opacity="0" result="BackgroundImageFix"/>
<feBlend mode="normal" in="SourceGraphic" in2="BackgroundImageFix" result="shape"/>
<feGaussianBlur stdDeviation="7.5611" result="effect1_foregroundBlur"/>
</filter>
<linearGradient id="paint0_linear" x1="39" y1="186.5" x2="39" y2="240.174" gradientUnits="userSpaceOnUse">
<stop offset="1e-07" stop-color="#fb4934"/>
<stop offset="1" stop-color="#cc241d"/>
</linearGradient>
<linearGradient id="paint1_linear" x1="39" y1="15" x2="39" y2="240.174" gradientUnits="userSpaceOnUse">
<stop offset="1e-07" stop-color="#b16286"/>
<stop offset="1" stop-color="#8f3f71"/>
</linearGradient>
<linearGradient id="paint2_linear" x1="39" y1="187" x2="39" y2="240" gradientUnits="userSpaceOnUse">
<stop offset="1e-07" stop-color="#b16286"/>
<stop offset="1" stop-color="#8f3f71"/>
</linearGradient>
<linearGradient id="paint3_linear" x1="74" y1="48" x2="74" y2="168" gradientUnits="userSpaceOnUse">
<stop offset="1e-07" stop-color="#fb4934"/>
<stop offset="1" stop-color="#cc241d"/>
</linearGradient>
<linearGradient id="paint4_linear" x1="155.608" y1="15" x2="155.608" y2="75.1605" gradientUnits="userSpaceOnUse">
<stop offset="1e-07" stop-color="#b16286"/>
<stop offset="1" stop-color="#8f3f71"/>
</linearGradient>
</defs>
</svg>

<svg id="svg54" width="256" height="256" fill="none" version="1.1" viewBox="0 0 256 256" xmlns="http://www.w3.org/2000/svg">
 <g id="g4" filter="url(#filter0_f)" opacity=".4">
  <path id="path2" d="m55.084 15.564h100.52l60.401 60.149 2e-3 148.9c0 8.911-7.262 16.128-16.173 16.128h-144.75c-8.9104 0-16.084-7.173-16.084-16.083v-193.01c0-8.9104 7.1734-16.084 16.084-16.084h1e-4z" fill="#282828"/>
 </g>
 <path id="path6" d="m55.084 15h100.52l60.401 60.149 2e-3 148.9c0 8.911-7.262 16.129-16.173 16.129h-144.75c-8.9104 0-16.084-7.174-16.084-16.084v-193.01c0-8.9104 7.1734-16.084 16.084-16.084h1e-4z" fill="#ebdbb2"/>
 <path id="path8" d="m199.84 240.17c8.911 0 16.173-7.218 16.173-16.128l-1e-3 -37.546h-177.01v37.59c0 8.91 7.1734 16.084 16.084 16.084h144.75z" fill="url(#paint0_linear)" opacity=".2"/>
 <path id="path10" d="m155.61 20.319h-100.52c-5.9727 0-10.765 4.792-10.765 10.765v193.01c0 5.973 4.792 10.765 10.765 10.765h144.75c5.992 0 10.854-4.856 10.854-10.809v-148.9l-55.084-54.83zm0-5.3191h-100.52c-8.9104 0-16.084 7.1734-16.084 16.084v193.01c0 8.91 7.1734 16.084 16.084 16.084h144.75c8.911 0 16.173-7.218 16.173-16.129l-2e-3 -148.9-60.401-60.149z" clip-rule="evenodd" fill="url(#paint1_linear)" fill-rule="evenodd"/>
 <path id="path12" d="m85.653 226h4.76v-10.96l10.12-17.04h-5.4399l-7.04 12.12-7.04-12.12h-5.44l10.08 17.04v10.96zm34.082 0h5.04l-10.4-28h-4.76l-10.44 28h5.0797l2.2-6.12h11.08l2.2 6.12zm-3.72-10.44h-8.04l3.12-8.4c0.28-0.8 0.68-2 0.92-2.84 0.2 0.84 0.6 2.04 0.92 2.84l3.08 8.4zm38.529 10.44v-28h-4.68l-7.24 16.44c-0.28 0.68-0.56 1.44-0.76 2.08-0.2-0.64-0.48-1.4-0.76-2.08l-7.2-16.44h-4.84v28h4.8v-14.88c0-1-0.08-2.6-0.16-3.36 0.36 1.08 0.88 2.4 1.32 3.36l6.8 15.36 6.8-15.28c0.4-1 0.92-2.36 1.28-3.44-0.08 0.76-0.16 2.36-0.16 3.36v14.88h4.8zm6.786 0h18.4v-4.6h-13.6v-23.4h-4.8v28z" fill="url(#paint2_linear)"/>
 <path id="path14" d="m147.26 81.853h19.507l-58.025 86.147h-19.507l29.012-43.074-29.012-43.074h19.507l19.259 28.593z" fill="url(#paint3_linear)" stroke-width=".71789"/>
 <path id="path16" d="m155.61 17v44.231c0 8.9104 7.259 15.93 16.169 15.93l44.232-0.0112v-2l-60.401-58.149z" fill="#282828" opacity=".25"/>
 <path id="path18" d="m155.61 15v44.231c0 8.9104 7.259 15.93 16.169 15.93l44.232-0.0112-60.401-60.149z" fill="url(#paint4_linear)"/>
 <defs id="defs52">
  <filter id="filter0_f" x="23.878" y=".44141" width="207.26" height="255.42" color-interpolation-filters="sRGB" filterUnits="userSpaceOnUse">
   <feFlood id="feFlood20" flood-opacity="0" result="BackgroundImageFix"/>
   <feBlend id="feBlend22" in="SourceGraphic" in2="BackgroundImageFix" result="shape"/>
   <feGaussianBlur id="feGaussianBlur24" result="effect1_foregroundBlur" stdDeviation="7.5611"/>
  </filter>
  <linearGradient id="paint0_linear" x1="39" x2="39" y1="186.5" y2="240.17" gradientUnits="userSpaceOnUse">
   <stop id="stop27" stop-color="#fb4934" offset="1e-7"/>
   <stop id="stop29" stop-color="#cc241d" offset="1"/>
  </linearGradient>
  <linearGradient id="paint1_linear" x1="39" x2="39" y1="15" y2="240.17" gradientUnits="userSpaceOnUse">
   <stop id="stop32" stop-color="#b16286" offset="1e-7"/>
   <stop id="stop34" stop-color="#8f3f71" offset="1"/>
  </linearGradient>
  <linearGradient id="paint2_linear" x1="39" x2="39" y1="187" y2="240" gradientUnits="userSpaceOnUse">
   <stop id="stop37" stop-color="#b16286" offset="1e-7"/>
   <stop id="stop39" stop-color="#8f3f71" offset="1"/>
  </linearGradient>
  <linearGradient id="paint3_linear" x1="74" x2="74" y1="48" y2="168" gradientTransform="matrix(.71789 0 0 .71789 36.109 47.394)" gradientUnits="userSpaceOnUse">
   <stop id="stop42" stop-color="#b16286" offset="1e-7"/>
   <stop id="stop44" stop-color="#8f3f71" offset="1"/>
  </linearGradient>
  <linearGradient id="paint4_linear" x1="155.61" x2="155.61" y1="15" y2="75.16" gradientUnits="userSpaceOnUse">
   <stop id="stop47" stop-color="#b16286" offset="1e-7"/>
   <stop id="stop49" stop-color="#8f3f71" offset="1"/>
  </linearGradient>
 </defs>
</svg>
